X:1
T:James Gibb editions
T:Psalm 119, pt 6 (Becker) - Schütz
%%score [ ( 1 2 ) ( 3 4 ) ]
L:1/8
Q:1/4=98
M:2/2
K:C
V:1 treble nm="Soprano Alto"
V:2 treble 
V:3 bass nm="Tenor Bass"
V:4 bass 
V:1
"^Cornelius Becker\n(1561-1604)""^Psalm 119, part 6, SWV 222""^Heinrich Schütz\n(1585-1672)" G4 A4 | %1
w: ~~Ich haß|
w: dein G'setz|
 c2 A4 G2 | (F2 G2) E4 | C4 E4 | F2 G4 E2 | (A4 G4) :| G4 c4 |[M:2/2] G2 A4 E2 | G2 F2 E4 | E4 A4 | %10
w: die Flat- ter-|gei\- * ster,|halt ih-|re Lehr für|Greul, *||mein Schirm, mein|Schild, mein Hort,|ich hof-|
w: lieb ich am|mei\- * sten,|es bringt|mir Gut und|Heil. *|||||
 G2 F4 E2 | D4 E4 | A4 G4 | c2 B4 (A2 | d8) | c8 |] %16
w: fe mit Ver-|lan- gen|auf dein|tröst- li- ches||Wort.|
w: ||||||
V:2
 E4 F4 | G2 F4 E2 | D4 G,4 | G,4 C4 | A,2 C4 B,2 | (D4 B,4) :| C4 E4 |[M:2/2] C2 C4 C2 | %8
w: ||||||Du bist||
 E2 D2 ^C4 | =C4 C4 | E2 D4 C2 | A,4 B,4 | E4 E4 | G2 G4 (E2 | G8) | E8 |] %16
w: ||||||||
V:3
 C4 C4 | G,2 C4 C2 | (A,2 B,2) C4 | E,4 A,4 | F,2 E,4 G,2 | (^F,4 G,4) :| E,4 G,4 | %7
[M:2/2] E,2 F,4 G,2 | C2 A,2 A,4 | G,4 F,4 | E,2 A,4 ^G,2 | %11
"^59. Dein heilger Geist mich stärke, daß ich genesen kann\nund an dein schönen Werken mein Lust und Freud mög han.\nDu wirst vertilgen ohne Scheu, die fehlen deiner Rechte\nmit Lüg'n und Trügerei.\n\n64. Herr, ich bin dein Geboten von Grund mein's Herzens hold,\nmehr denn allen Kleinoden von Ed'lgestein und Gold,\nich halt mich fest an dein Befehl, all falsch und irrig Wege\nhaßt feindlich meine Seel.\n\n65. Wunderbar über Maßen sind. Herr, die Zeugnis dein,\ndein Wort ins Herz ich fasse, fest hält's die Seele mein;\nwenn dein Gebot wird offenbar, bringts Freud, macht klug und weise\nden, der einfältig war.\n\n66. Dein Rechte ich begehre und tu auf meinen Mund,\nmein Herz verlanget sehre nach dir zu aller Stund;\nwend dich, nimm mich zu Gnaden an, wie du bei denen pflegest,\ndie lieben deinen Nam'n.\n\n68. Herr, laß dein Antlitz leuchten über mich, deinen Knecht,\nlehr mich zum Himmelreiche durch dein göttliches Recht.\nDu treuer Herr, ob deinem Knecht laß deine Gnade walten\nUnd lehr mich deine Recht." A,4 ^G,4 | %12
 C4 B,4 | E2 D4 (C2- | C2 B,A, B,4) | C8 |] %16
V:4
 C,4 F,4 | E,2 F,4 C,2 | (D,2 G,,2) C,4 | C,4 A,,4 | D,2 C,4 E,2 | (D,4 G,,4) :| C,4 C,4 | %7
[M:2/2] C,2 F,4 C,2 | C,2 D,2 A,,4 | =C,4 F,,4 | C,2 D,4 E,2 | F,4 E,4 | A,,4 E,4 | C,2 G,4 A,2 | %14
 B,8 | C,8 |] %16

